svg/m/SX.svg

<svg width="20" height="15" viewBox="0 0 20 15" fill="none" xmlns="http://www.w3.org/2000/svg">
<g clip-path="url(#clip0_270_60872)">
<rect width="20" height="15" fill="white"/>
<path fill-rule="evenodd" clip-rule="evenodd" d="M0 0V15H20V0H0Z" fill="#E31D1C"/>
<mask id="mask0_270_60872" style="mask-type:luminance" maskUnits="userSpaceOnUse" x="0" y="0" width="20" height="15">
<path fill-rule="evenodd" clip-rule="evenodd" d="M0 0V15H20V0H0Z" fill="white"/>
</mask>
<g mask="url(#mask0_270_60872)">
<path fill-rule="evenodd" clip-rule="evenodd" d="M0 7.5V15H20V7.5H0Z" fill="#2E42A5"/>
</g>
<path fill-rule="evenodd" clip-rule="evenodd" d="M0 -1.25V16.25L12.5 7.5L0 -1.25Z" fill="#F7FCFF"/>
<mask id="mask1_270_60872" style="mask-type:luminance" maskUnits="userSpaceOnUse" x="0" y="-2" width="13" height="19">
<path fill-rule="evenodd" clip-rule="evenodd" d="M0 -1.25V16.25L12.5 7.5L0 -1.25Z" fill="white"/>
</mask>
<g mask="url(#mask1_270_60872)">
<path fill-rule="evenodd" clip-rule="evenodd" d="M5.07866 5.74301C5.97661 5.74301 6.70454 5.29686 6.70454 4.7465C6.70454 4.19615 5.97661 3.75 5.07866 3.75C4.18072 3.75 3.45279 4.19615 3.45279 4.7465C3.45279 5.29686 4.18072 5.74301 5.07866 5.74301Z" fill="#FBCD17"/>
<path fill-rule="evenodd" clip-rule="evenodd" d="M5.2209 3.99084C5.08817 3.99084 4.99386 4.07635 4.99386 4.20506L4.99398 4.21926C4.98685 4.24071 4.98285 4.26461 4.98213 4.29137C4.98028 4.35984 5.00578 4.41696 5.0593 4.46935C5.06259 4.48447 5.0643 4.497 5.06382 4.50411C5.06057 4.49294 5.04765 4.48358 5.02305 4.46575C4.98808 4.44039 4.9295 4.39793 4.84154 4.30882C4.71484 4.18049 4.61923 4.13026 4.50038 4.15022C4.46434 4.15627 4.42907 4.16897 4.38672 4.18593C4.31921 4.21024 4.25706 4.21588 4.14231 4.19398C3.82343 4.13311 3.47367 4.19283 3.09503 4.36829L3.22642 4.65183C3.54957 4.50208 3.83468 4.4534 4.08371 4.50094C4.25479 4.53359 4.37358 4.5228 4.4926 4.47994C4.54389 4.46065 4.54837 4.45904 4.55213 4.4584C4.54836 4.45904 4.55078 4.46136 4.56663 4.47659C4.57731 4.48685 4.59408 4.50297 4.61915 4.52837C4.65487 4.56455 4.69221 4.5973 4.73034 4.62709C4.65704 4.64679 4.66084 4.66031 4.67429 4.70828C4.67977 4.72783 4.68686 4.7531 4.69099 4.78683C4.7001 4.86132 4.68496 4.89973 4.69802 4.91812C4.71259 4.93865 4.76226 4.93425 4.91986 4.92723C4.96228 4.92534 5.01966 4.92096 5.08586 4.91469C5.21568 4.90242 5.36262 4.88452 5.4529 4.86972C5.5406 4.85534 5.56391 4.8501 5.60069 4.82333C5.61341 4.80773 5.6243 4.79439 5.63332 4.7825C5.93321 4.73844 6.19987 4.70714 6.43717 4.68555C6.52225 4.6778 6.59063 4.67249 6.65683 4.66763C6.65815 4.66762 6.65924 4.66761 6.66033 4.66756C6.66574 4.66733 6.67111 4.66621 6.70313 4.65951C6.71995 4.65236 6.7269 4.64941 6.72926 4.64842L6.72923 4.64849C6.72982 4.64822 6.73028 4.64801 6.73028 4.648C6.73027 4.648 6.72999 4.64811 6.72926 4.64842L6.80585 4.46699L6.72672 4.3713C6.67372 4.35464 6.67371 4.35464 6.66705 4.35457L6.66704 4.35457C6.65732 4.354 6.65732 4.354 6.65176 4.35391C6.62668 4.35376 6.62668 4.35376 6.58009 4.35381C6.52818 4.35381 6.48718 4.34942 6.42794 4.33889L6.37285 4.32876C6.12922 4.28407 5.90325 4.28407 5.42401 4.35552L5.39723 4.33506C5.47441 4.32164 5.56841 4.31254 5.66774 4.30724C5.72779 4.30445 5.72779 4.30445 5.76132 4.30356L5.77599 4.30321L5.77415 3.99087L5.75045 3.99084H5.2209ZM4.96204 4.89555L4.99192 4.88934L5.02136 4.88306C5.01596 4.8842 5.00999 4.88545 5.00338 4.88683C4.99166 4.88927 4.97797 4.89213 4.96204 4.89555Z" fill="#DA610A"/>
<path d="M4.95313 5.36297L5.00369 5.37126L5.05425 5.36297C5.67489 5.26122 6.08356 5.2731 6.32035 5.35252C6.59313 5.44401 6.89465 5.41811 7.21172 5.31133C7.11108 5.75994 7.05956 6.18394 7.05956 6.58241C7.05956 7.03668 7.14743 7.40365 7.22717 7.72561C7.22931 7.73424 7.23144 7.74284 7.23356 7.7514C7.3117 8.06667 7.37646 8.32794 7.37646 8.62777C7.37646 8.89691 7.28719 9.03827 7.16242 9.1266C7.01796 9.22888 6.77702 9.29404 6.41973 9.29404C5.91597 9.29404 5.4447 9.42971 5.01077 9.69514L5.00369 9.69006L4.99661 9.69514C4.56268 9.42971 4.09141 9.29404 3.58765 9.29404C3.23035 9.29404 2.98942 9.22888 2.84496 9.1266C2.72019 9.03827 2.63092 8.89691 2.63092 8.62777C2.63092 8.32794 2.69568 8.06667 2.77381 7.7514C2.77593 7.74284 2.77806 7.73424 2.7802 7.72561C2.85994 7.40365 2.94782 7.03668 2.94782 6.58241C2.94782 6.18394 2.89629 5.75994 2.79566 5.31133C3.11273 5.41811 3.41425 5.44401 3.68702 5.35252C3.92381 5.2731 4.33249 5.26122 4.95313 5.36297Z" fill="#56C6F5" stroke="#E31D1C" stroke-width="0.625"/>
<path fill-rule="evenodd" clip-rule="evenodd" d="M5.4905 6.39012L5.00836 5.96155L4.52621 6.39012H4.66907V6.63719L3.91907 7.1044V8.24726H3.77621V8.46155H3.91907H6.09764H6.27621V8.24726H6.09764V7.1044L5.31193 6.61494V6.39012H5.4905Z" fill="#F7FCFF"/>
<path d="M4.96991 10.6378C5.63306 10.6378 6.08959 10.5654 6.32468 10.442C6.38631 10.3372 6.4944 10.278 6.60941 10.2823C7.12594 10.3014 7.52599 10.0838 7.84048 9.60551C8.18029 9.08874 8.24857 8.3547 8.02709 7.39121L8.58935 7.26196C8.84311 8.36592 8.76024 9.25682 8.32253 9.92248C7.9303 10.519 7.3955 10.8376 6.74284 10.8592C6.40949 11.106 5.82532 11.2147 4.96991 11.2147C4.14238 11.2147 3.52881 11.054 3.13528 10.7126C2.24161 10.5015 1.67369 10.145 1.45039 9.6167C1.21235 9.05351 1.21235 8.27165 1.43439 7.26448L1.99779 7.38869C1.79911 8.28985 1.79911 8.95987 1.98179 9.3921C2.10927 9.69371 2.47968 9.93985 3.1072 10.1105L3.6902 10.2352L3.66222 10.3824C3.94663 10.5486 4.38131 10.6378 4.96991 10.6378Z" fill="#FBCD17"/>
<path d="M2.94623 5.51495L3.26582 5.64353L3.10603 5.97574L3.55301 5.74535L3.51829 5.91592L3.42246 6.3867L3.60561 5.85061V6.32415L3.71751 5.85061L4.04982 5.95083L3.71751 5.74535L4.04982 5.64353" stroke="#73BE4A" stroke-width="0.625" stroke-linecap="round" stroke-linejoin="round"/>
<path fill-rule="evenodd" clip-rule="evenodd" d="M3.55551 6.21069C3.7281 6.21069 3.86801 6.07078 3.86801 5.89819C3.86801 5.7256 3.7281 5.58569 3.55551 5.58569C3.38292 5.58569 3.24301 5.7256 3.24301 5.89819C3.24301 6.07078 3.38292 6.21069 3.55551 6.21069Z" fill="#FBCD17"/>
<path fill-rule="evenodd" clip-rule="evenodd" d="M6.65065 6.17083C6.64553 5.96065 6.62218 5.48077 6.51555 5.48077C6.40829 5.48077 6.39197 5.96628 6.38991 6.17449C6.20526 6.23484 6.06625 6.39373 6.06625 6.39373H6.98597C6.98597 6.39373 6.84108 6.22812 6.65065 6.17083Z" fill="#F7FCFF"/>
</g>
</g>
<defs>
<clipPath id="clip0_270_60872">
<rect width="20" height="15" fill="white"/>
</clipPath>
</defs>
</svg>

<svg width="20" height="15" fill="none" xmlns="http://www.w3.org/2000/svg">
  <mask id="a" maskUnits="userSpaceOnUse" x="0" y="0" width="20" height="15">
    <path fill="#fff" d="M0 0h20v15H0z"/>
  </mask>
  <g mask="url(#a)">
    <path fill-rule="evenodd" clip-rule="evenodd" d="M0 0v15h20V0H0z" fill="#E31D1C"/>
    <mask id="b" maskUnits="userSpaceOnUse" x="0" y="0" width="20" height="15">
      <path fill-rule="evenodd" clip-rule="evenodd" d="M0 0v15h20V0H0z" fill="#fff"/>
    </mask>
    <g mask="url(#b)">
      <path fill-rule="evenodd" clip-rule="evenodd" d="M0 7.5V15h20V7.5H0z" fill="#2E42A5"/>
    </g>
    <path fill-rule="evenodd" clip-rule="evenodd" d="M0-1.25v17.5L12.5 7.5 0-1.25z" fill="#F7FCFF"/>
    <mask id="c" maskUnits="userSpaceOnUse" x="0" y="-2" width="13" height="19">
      <path fill-rule="evenodd" clip-rule="evenodd" d="M0-1.25v17.5L12.5 7.5 0-1.25z" fill="#fff"/>
    </mask>
    <g mask="url(#c)">
      <path fill-rule="evenodd" clip-rule="evenodd" d="M5.079 5.743c.898 0 1.626-.446 1.626-.997 0-.55-.728-.996-1.626-.996-.898 0-1.626.446-1.626.997 0 .55.728.996 1.626.996z" fill="#FBCD17"/>
      <path fill-rule="evenodd" clip-rule="evenodd" d="M5.22 3.99c-.132 0-.226.086-.226.215v.014a.249.249 0 00-.012.072.23.23 0 00.077.178.147.147 0 01.005.035c-.003-.011-.016-.02-.041-.038-.035-.026-.093-.068-.181-.157-.127-.129-.223-.179-.342-.159a.555.555 0 00-.113.036.419.419 0 01-.245.008c-.319-.06-.668-.001-1.047.174l.131.284c.324-.15.609-.199.858-.151a.725.725 0 00.468-.043c-.004.001-.001.003.015.019l.052.051c.036.037.073.07.111.1-.073.019-.07.032-.056.08.006.02.013.045.017.079.01.074-.006.113.007.131.015.02.064.016.222.01l.166-.013c.13-.013.277-.03.367-.045.088-.015.11-.02.148-.047l.032-.04a14.701 14.701 0 011.027-.115c.006 0 .011-.002.043-.008l.026-.012h.001l.076-.181-.08-.096c-.052-.016-.052-.016-.059-.016l-.015-.001H6.58a.798.798 0 01-.152-.015l-.055-.01c-.244-.045-.47-.045-.949.027l-.027-.02a2.38 2.38 0 01.27-.029c.06-.003.06-.003.094-.003h.015l-.002-.313H5.22zm-.258.906l.03-.007.03-.006a8.363 8.363 0 01-.06.013z" fill="#DA610A"/>
      <path d="M4.953 5.363l.05.008.051-.008c.62-.102 1.03-.09 1.266-.01.273.091.575.065.892-.042-.1.449-.152.873-.152 1.271 0 .455.087.822.167 1.144l.007.025c.078.316.142.577.142.877 0 .269-.089.41-.214.499-.144.102-.385.167-.742.167-.504 0-.975.136-1.41.401l-.006-.005-.007.005a2.658 2.658 0 00-1.41-.401c-.357 0-.598-.065-.742-.167-.125-.089-.214-.23-.214-.5 0-.3.065-.56.143-.876l.006-.025c.08-.322.168-.69.168-1.144 0-.398-.052-.822-.152-1.27.317.106.618.132.891.04.237-.079.645-.09 1.266.011z" fill="#56C6F5" stroke="#E31D1C" stroke-width=".625"/>
      <path fill-rule="evenodd" clip-rule="evenodd" d="M5.49 6.39l-.482-.428-.482.428h.143v.247l-.75.467v1.143h-.143v.215h2.5v-.215h-.178V7.104l-.786-.49V6.39h.178z" fill="#F7FCFF"/>
      <path d="M4.97 10.638c.663 0 1.12-.073 1.355-.196a.316.316 0 01.284-.16c.517.02.917-.198 1.231-.676.34-.517.409-1.251.187-2.215l.562-.129c.254 1.104.171 1.995-.266 2.66-.393.597-.928.916-1.58.937-.334.247-.918.356-1.773.356-.828 0-1.441-.161-1.835-.502-.893-.211-1.461-.568-1.685-1.096-.238-.563-.238-1.345-.016-2.353l.564.125c-.199.9-.199 1.57-.016 2.003.127.302.498.548 1.125.719l.583.124-.028.147c.285.167.72.256 1.308.256z" fill="#FBCD17"/>
      <path d="M2.946 5.515l.32.129-.16.332.447-.23-.035.17-.096.47.184-.535v.473l.112-.473.332.1-.332-.206.332-.101" stroke="#73BE4A" stroke-width=".625" stroke-linecap="round" stroke-linejoin="round"/>
      <path fill-rule="evenodd" clip-rule="evenodd" d="M3.556 6.21a.312.312 0 100-.624.312.312 0 000 .625z" fill="#FBCD17"/>
      <path fill-rule="evenodd" clip-rule="evenodd" d="M6.65 6.17c-.004-.21-.028-.69-.134-.69-.108 0-.124.486-.126.694-.185.06-.324.22-.324.22h.92s-.145-.166-.335-.223z" fill="#F7FCFF"/>
    </g>
  </g>
</svg>
